assets/svg/action_createpost_deletepost.svg

<svg width="80" height="80" viewBox="0 0 80 80" fill="none" xmlns="http://www.w3.org/2000/svg">
<path d="M54.8125 69.9082C54.4734 69.9082 54.1984 70.1831 54.1984 70.5223C54.1984 72.866 52.2984 74.766 49.9547 74.766H31.1953C29.6859 74.766 28.4609 75.991 28.4609 77.5004H49.9547C53.8094 77.5004 56.9328 74.3754 56.9328 70.5223V69.9082H54.8125Z" fill="#E1EAF8"/>
<path d="M43.9438 8.05313H32.4609C31.5203 8.05313 30.6844 7.45156 30.3859 6.55781L29.0312 2.5H47.3719L46.0187 6.55781C45.8732 6.99307 45.5946 7.37159 45.2223 7.63991C44.8499 7.90823 44.4027 8.05277 43.9438 8.05313Z" fill="#E1EAF8"/>
<path d="M44.2032 21.3481C43.9457 21.3481 43.7371 21.5575 43.7372 21.815C43.7373 21.8978 43.7373 21.9827 43.7373 22.0696V22.6897C43.7373 23.4185 43.7371 23.9418 43.7088 24.3547C43.6809 24.7634 43.6271 25.03 43.5365 25.2488C43.269 25.8946 42.7559 26.4077 42.1101 26.6753C41.7903 26.8077 41.3823 26.8572 40.6038 26.8706L40.5841 26.871C40.3372 26.8753 40.1211 26.879 39.9413 26.8989C39.7482 26.9203 39.5592 26.9634 39.3776 27.0691C39.1975 27.1739 39.0676 27.3138 38.9545 27.4689C38.85 27.6126 38.7424 27.7941 38.6208 27.9997L38.2745 28.5849C38.1551 28.7867 37.8468 28.7867 37.7272 28.5849L37.3809 27.9997C37.2591 27.794 37.1517 27.6124 37.0472 27.4689C36.9339 27.3136 36.8042 27.1739 36.6241 27.0691C36.4425 26.9634 36.2537 26.9203 36.0604 26.8989C35.8806 26.879 35.6643 26.8753 35.4176 26.871L35.3978 26.8706C34.6192 26.8572 34.2112 26.8077 33.8916 26.6753C33.2458 26.4077 32.7327 25.8946 32.4652 25.2488C32.3746 25.03 32.3208 24.7634 32.2929 24.3547C32.2648 23.9418 32.2644 23.4185 32.2644 22.6897V22.0696C32.2644 21.0456 32.265 20.3102 32.3195 19.7366C32.3734 19.1699 32.4767 18.8093 32.6529 18.5219C32.8702 18.1673 33.1684 17.869 33.523 17.6517C33.8105 17.4755 34.171 17.3723 34.7377 17.3183C35.3113 17.2638 36.0468 17.2632 37.0708 17.2632H38.9313C39.09 17.2632 39.2416 17.2632 39.3869 17.2635C39.6451 17.2638 39.8554 17.055 39.8554 16.7968C39.8554 16.5412 39.6492 16.3336 39.3937 16.3332C39.2524 16.333 39.1064 16.333 38.9555 16.333H37.046C36.0518 16.333 35.2723 16.333 34.6494 16.3922C34.0146 16.4525 33.4948 16.5777 33.0367 16.8584C32.5569 17.1524 32.1535 17.5559 31.8594 18.0357C31.5786 18.494 31.4534 19.0136 31.3931 19.6484C31.334 20.2713 31.334 21.0508 31.334 22.0451V22.7068C31.334 23.4148 31.334 23.9697 31.3645 24.4179C31.3956 24.8741 31.4599 25.2537 31.6054 25.6047C31.9673 26.4784 32.6616 27.1727 33.5353 27.5346C34.0345 27.7413 34.603 27.7873 35.3817 27.8007C35.654 27.8053 35.8265 27.8088 35.9578 27.8234C36.0806 27.8369 36.1283 27.8568 36.1562 27.8732C36.1856 27.8903 36.2256 27.9214 36.2952 28.0168C36.3705 28.1201 36.4555 28.2628 36.5902 28.4907L36.9264 29.0587C37.4062 29.8693 38.5951 29.8693 39.0747 29.0587L39.4109 28.4907C39.5458 28.2628 39.6308 28.1201 39.706 28.0168C39.7756 27.9214 39.8156 27.8903 39.845 27.8732C39.8729 27.857 39.9205 27.8371 40.0433 27.8234C40.1748 27.8088 40.3473 27.8053 40.6195 27.8007C41.3979 27.7873 41.9667 27.7413 42.4658 27.5346C43.3395 27.1727 44.0338 26.4784 44.3957 25.6047C44.5412 25.2537 44.6054 24.8741 44.6366 24.4179C44.6671 23.9697 44.6671 23.4148 44.6671 22.7068V22.0451C44.6671 21.9657 44.6671 21.8877 44.6671 21.8111C44.667 21.5551 44.4592 21.3481 44.2032 21.3481Z" fill="#9A9A9A"/>
<path d="M41.9986 16.7905L39.3431 19.446C39.1999 19.589 39.1003 19.6888 39.0131 19.8006C38.9106 19.9319 38.8228 20.0741 38.7511 20.2246C38.6901 20.3526 38.6456 20.4862 38.5816 20.6784L38.1934 21.843C38.1022 22.1165 38.1735 22.4181 38.3772 22.6218C38.5809 22.8257 38.8825 22.8968 39.156 22.8056L40.3206 22.4173C40.5126 22.3533 40.6464 22.3089 40.7742 22.2479C40.9247 22.1762 41.0669 22.0882 41.1982 21.9859C41.31 21.8986 41.4096 21.7991 41.5528 21.6559L44.2083 19.0004C44.8185 18.3901 44.8185 17.4007 44.2083 16.7907C43.5981 16.1804 42.6088 16.1804 41.9986 16.7907V16.7905ZM40.9139 20.9792C40.7452 21.1479 40.6875 21.2045 40.6263 21.2521C40.5482 21.3132 40.4637 21.3652 40.3742 21.4079C40.3043 21.4412 40.228 21.4674 40.0014 21.5429L39.3584 21.7572L39.2414 21.6402L39.4557 20.9972C39.5312 20.7708 39.5575 20.6944 39.5908 20.6244C39.6334 20.5349 39.6857 20.4504 39.7465 20.3723C39.7941 20.3113 39.8507 20.2536 40.0194 20.0847L41.8712 18.2329C41.9638 18.3981 42.0887 18.573 42.257 18.7414C42.4254 18.9098 42.6003 19.0346 42.7655 19.1273L40.9138 20.979L40.9139 20.9792ZM43.5506 18.3425L43.469 18.4242C43.4589 18.421 43.4485 18.4175 43.4379 18.4138C43.2918 18.363 43.0982 18.2668 42.9151 18.0837C42.732 17.9008 42.6358 17.7072 42.585 17.5609C42.5813 17.5503 42.578 17.5399 42.5746 17.5299L42.6563 17.4482C42.9032 17.2013 43.3036 17.2013 43.5504 17.4482C43.7973 17.6951 43.7973 18.0954 43.5504 18.3423L43.5506 18.3425Z" fill="#9A9A9A"/>
<path d="M34.666 20.083H35.291" stroke="#9A9A9A" stroke-linecap="round" stroke-linejoin="round"/>
<path d="M34.666 22.167H35.916" stroke="#9A9A9A" stroke-linecap="round" stroke-linejoin="round"/>
<path d="M34.666 24.25H38.8327" stroke="#9A9A9A" stroke-linecap="round" stroke-linejoin="round"/>
<path d="M43.0165 63.4894C43.1137 63.4572 43.1955 63.3997 43.2583 63.3259C43.3196 63.2542 43.3613 63.1679 43.3793 63.0754C43.3973 62.9828 43.391 62.8872 43.361 62.7978C43.3383 62.7297 43.3024 62.6667 43.2554 62.6125C43.2083 62.5583 43.151 62.5139 43.0867 62.4819C43.0225 62.4499 42.9525 62.4309 42.8809 62.426C42.8093 62.4211 42.7374 62.4304 42.6693 62.4533L38.812 63.748C38.7439 63.7707 38.6809 63.8066 38.6267 63.8537C38.5725 63.9007 38.5281 63.958 38.4961 64.0223C38.4641 64.0866 38.4451 64.1565 38.4402 64.2282C38.4353 64.2998 38.4446 64.3717 38.4675 64.4397C38.4902 64.5078 38.5261 64.5708 38.5732 64.625C38.6203 64.6792 38.6776 64.7236 38.7418 64.7556C38.8061 64.7876 38.8761 64.8066 38.9477 64.8115C39.0193 64.8164 39.0912 64.8071 39.1592 64.7842L43.0165 63.4894Z" fill="#FD4E4E"/>
<path d="M47.5186 71.9684C47.6441 71.9463 47.758 71.8811 47.8406 71.784C47.8831 71.734 47.9181 71.6736 47.9416 71.6074L49.2647 67.76C49.3625 67.4739 49.2111 67.1624 48.925 67.0646C48.6389 66.9668 48.3274 67.1183 48.2296 67.4044L46.9066 71.2518C46.8651 71.3723 46.8671 71.5035 46.9121 71.6228C46.9571 71.742 47.0423 71.8418 47.153 71.9049C47.2638 71.968 47.3931 71.9904 47.5186 71.9684Z" fill="#FD4E4E"/>
<path d="M68.8487 44.3211C68.7515 44.3533 68.6697 44.4109 68.6069 44.4847C68.5456 44.5563 68.504 44.6426 68.486 44.7352C68.468 44.8277 68.4743 44.9234 68.5042 45.0128C68.5269 45.0809 68.5628 45.1439 68.6099 45.1981C68.6569 45.2523 68.7143 45.2967 68.7785 45.3287C68.8428 45.3607 68.9127 45.3797 68.9844 45.3846C69.056 45.3895 69.1279 45.3802 69.1959 45.3573L73.0532 44.0625C73.1213 44.0399 73.1843 44.0039 73.2385 43.9569C73.2927 43.9098 73.3371 43.8525 73.3691 43.7882C73.4011 43.724 73.4201 43.654 73.425 43.5824C73.4299 43.5108 73.4206 43.4389 73.3977 43.3709C73.375 43.3027 73.3391 43.2398 73.292 43.1856C73.245 43.1314 73.1877 43.087 73.1234 43.055C73.0591 43.023 72.9892 43.004 72.9176 42.9991C72.8459 42.9942 72.774 43.0034 72.706 43.0264L68.8487 44.3211Z" fill="#FD4E4E"/>
<path d="M64.3466 35.8422C64.2211 35.8642 64.1072 35.9294 64.0247 36.0265C63.9821 36.0765 63.9471 36.137 63.9236 36.2031L62.6005 40.0506C62.5027 40.3366 62.6542 40.6481 62.9403 40.7459C63.2263 40.8437 63.5378 40.6923 63.6356 40.4062L64.9587 36.5588C65.0001 36.4382 64.9982 36.307 64.9532 36.1878C64.9082 36.0686 64.8229 35.9688 64.7122 35.9057C64.6015 35.8426 64.4722 35.8201 64.3466 35.8422Z" fill="#FD4E4E"/>
<path d="M56.2254 69.6327C56.2254 69.3311 56.4707 69.0858 56.7723 69.0858C57.0754 69.0858 57.3191 69.3296 57.3176 69.6327V70.5218C57.3176 74.6702 53.9426 78.0468 49.7926 78.0468H26.2848C22.1363 78.0468 18.7598 74.6718 18.7598 70.5218L18.7604 67.9993L18.7598 64.2137C18.7598 63.9112 19.005 63.666 19.3075 63.666C19.6099 63.666 19.8551 63.9112 19.8551 64.2136V70.5218C19.8551 74.0671 22.7395 76.953 26.2863 76.953H49.7941C53.3395 76.953 56.2254 74.0686 56.2254 70.5218V69.6327Z" fill="#9A9A9A"/>
<path d="M27.3883 38.5645H46.5086C46.8102 38.5645 47.0555 38.3191 47.0555 38.0176C47.0555 37.716 46.8102 37.4707 46.5086 37.4707H27.3883C27.0867 37.4707 26.8414 37.716 26.8414 38.0176C26.8414 38.3191 27.0867 38.5645 27.3883 38.5645Z" fill="#9A9A9A"/>
<path d="M27.3863 44.0035H41.5066C41.8082 44.0035 42.0535 43.7582 42.0535 43.4566C42.0535 43.155 41.8082 42.9097 41.5066 42.9097H27.3863C27.0848 42.9097 26.8395 43.155 26.8395 43.4566C26.8395 43.7582 27.0848 44.0035 27.3863 44.0035ZM37.0332 49.1129H27.3301C27.0285 49.1129 26.7832 49.3582 26.7832 49.6597C26.7832 49.9613 27.0285 50.2066 27.3301 50.2066H37.0332C37.3348 50.2066 37.5801 49.9613 37.5801 49.6597C37.5801 49.3582 37.3348 49.1129 37.0332 49.1129ZM37.0332 54.5519H27.3301C27.0285 54.5519 26.7832 54.7972 26.7832 55.0988C26.7832 55.4004 27.0285 55.6457 27.3301 55.6457H37.0332C37.3348 55.6457 37.5801 55.4004 37.5801 55.0988C37.5801 54.7972 37.3348 54.5519 37.0332 54.5519Z" fill="#9A9A9A"/>
<path d="M18.7609 9.47813V60.0273C18.7609 60.3298 19.0061 60.575 19.3086 60.575C19.6111 60.575 19.8563 60.3298 19.8563 60.0273V9.47813C19.8563 5.93281 22.7406 3.04688 26.2875 3.04688H49.7953C53.3406 3.04688 56.2266 5.93125 56.2266 9.47813V38.1719C56.2266 38.4734 56.4719 38.7188 56.7734 38.7188C57.075 38.7188 57.3203 38.4734 57.3203 38.1719V9.47813C57.3203 5.32969 53.9453 1.95312 49.7953 1.95312H26.2859C22.1375 1.95312 18.7609 5.32813 18.7609 9.47813Z" fill="#9A9A9A"/>
<path d="M58.6482 49.9201H54.9621C55.109 49.717 55.2287 49.5204 55.3065 49.3771C55.3628 49.2734 55.4725 49.1929 55.6096 49.1719C55.6345 49.1681 55.6686 49.1667 55.8452 49.1667H57.8502C58.0267 49.1667 58.0609 49.1681 58.0858 49.1719C58.2584 49.1983 58.3315 49.2579 58.3764 49.3527C58.3875 49.376 58.4015 49.408 58.4185 49.4467C58.4693 49.5624 58.5463 49.7379 58.6482 49.9201Z" fill="#FD4E4E"/>
<path fill-rule="evenodd" clip-rule="evenodd" d="M57 66C63.6274 66 69 60.6274 69 54C69 47.3726 63.6274 42 57 42C50.3726 42 45 47.3726 45 54C45 60.6274 50.3726 66 57 66ZM55.8165 48.1667C55.6853 48.1666 55.5686 48.1665 55.4582 48.1834C55.0237 48.2499 54.6388 48.5112 54.4278 48.8999C54.3331 49.0742 54.1526 49.3586 53.9464 49.5931C53.8434 49.7103 53.7461 49.8011 53.6619 49.8596C53.5915 49.9085 53.5548 49.918 53.5483 49.9196C53.5476 49.9198 53.5473 49.9199 53.5473 49.92C53.5401 49.9201 53.5298 49.9201 53.5012 49.9201H51.6667C51.3905 49.9201 51.1667 50.144 51.1667 50.4201C51.1667 50.6963 51.3905 50.9201 51.6667 50.9201H62.3333C62.6095 50.9201 62.8333 50.6963 62.8333 50.4201C62.8333 50.144 62.6095 49.9201 62.3333 49.9201H60.1941C60.1622 49.9201 60.1531 49.9201 60.1457 49.9199L60.1337 49.9198C59.9401 49.9197 59.7886 49.8228 59.639 49.6189C59.5153 49.4502 59.4364 49.2727 59.3582 49.0966C59.3326 49.0389 59.307 48.9813 59.28 48.9243C59.0537 48.447 58.6361 48.2445 58.2371 48.1834C58.1267 48.1665 58.01 48.1666 57.8788 48.1667H55.8165ZM53.3332 51.9925C53.3141 51.7171 53.0752 51.5093 52.7998 51.5284C52.5243 51.5476 52.3165 51.7864 52.3357 52.0619L52.6185 56.13C52.6703 56.8756 52.7127 57.4857 52.8125 57.9662C52.9173 58.4705 53.0973 58.8982 53.47 59.2325C53.84 59.5644 54.289 59.7048 54.8111 59.7703C55.3137 59.8334 55.9479 59.8333 56.7302 59.8333H57.2688C58.0512 59.8333 58.6854 59.8334 59.1879 59.7703C59.71 59.7048 60.1591 59.5644 60.5291 59.2325C60.9018 58.8982 61.0818 58.4705 61.1865 57.9662C61.2864 57.4858 61.3288 56.8756 61.3806 56.1301L61.6634 52.0619C61.6826 51.7864 61.4748 51.5476 61.1993 51.5284C60.9238 51.5093 60.685 51.7171 60.6658 51.9925L60.3855 56.025C60.3305 56.815 60.2918 57.3568 60.2074 57.7628C60.1265 58.1527 60.0159 58.3495 59.8613 58.4881C59.7041 58.6292 59.4841 58.7253 59.0634 58.7781C58.6304 58.8324 58.0592 58.8333 57.2352 58.8333H56.7638C55.9398 58.8333 55.3686 58.8324 54.9356 58.7781C54.515 58.7253 54.295 58.6292 54.1377 58.4882C53.9832 58.3495 53.8726 58.1527 53.7916 57.7628C53.7073 57.3568 53.6685 56.815 53.6136 56.025L53.3332 51.9925ZM55.973 53.4366C55.9444 53.1619 55.6985 52.9625 55.4239 52.9911C55.1492 53.0198 54.9498 53.2656 54.9784 53.5403L55.2832 56.4627C55.3118 56.7374 55.5577 56.9368 55.8323 56.9082C56.107 56.8795 56.3064 56.6337 56.2778 56.359L55.973 53.4366ZM59.0206 53.5403C59.0493 53.2656 58.8498 53.0198 58.5752 52.9911C58.3005 52.9625 58.0547 53.1619 58.026 53.4366L57.7213 56.359C57.6926 56.6337 57.8921 56.8795 58.1667 56.9082C58.4414 56.9368 58.6872 56.7374 58.7159 56.4627L59.0206 53.5403Z" fill="#FD4E4E"/>
</svg>

<svg xmlns="http://www.w3.org/2000/svg" width="80" height="80" fill="none"><path fill="#E1EAF8" d="M54.813 69.908a.614.614 0 0 0-.615.614c0 2.344-1.9 4.244-4.243 4.244h-18.76a2.735 2.735 0 0 0-2.734 2.734h21.494a6.98 6.98 0 0 0 6.978-6.978v-.614zM43.944 8.053H32.46c-.94 0-1.777-.601-2.075-1.495L29.03 2.5h18.34L46.02 6.558a2.19 2.19 0 0 1-2.075 1.495"/><path fill="#9A9A9A" d="M44.203 21.348a.467.467 0 0 0-.466.467v.875c0 .729 0 1.252-.028 1.665-.028.408-.082.675-.173.894a2.64 2.64 0 0 1-1.426 1.426c-.32.133-.728.182-1.506.196h-.02c-.247.004-.463.008-.643.028a1.4 1.4 0 0 0-.563.17c-.18.105-.31.245-.423.4a7 7 0 0 0-.334.53l-.346.586a.323.323 0 0 1-.548 0L37.381 28c-.122-.206-.23-.388-.334-.531a1.4 1.4 0 0 0-.423-.4 1.4 1.4 0 0 0-.564-.17c-.18-.02-.396-.024-.642-.028h-.02c-.779-.014-1.187-.063-1.506-.196a2.64 2.64 0 0 1-1.427-1.426c-.09-.219-.144-.486-.172-.894-.028-.413-.029-.936-.029-1.665v-.62c0-1.024.001-1.76.055-2.333.054-.567.158-.928.334-1.215.217-.355.515-.653.87-.87.287-.177.648-.28 1.215-.334.573-.054 1.309-.055 2.333-.055h2.316a.467.467 0 0 0 .468-.466.463.463 0 0 0-.461-.464h-2.348c-.994 0-1.774 0-2.397.06-.634.06-1.154.185-1.612.465-.48.294-.883.698-1.178 1.178-.28.458-.406.978-.466 1.612-.059.623-.059 1.403-.059 2.397v.662c0 .708 0 1.263.03 1.71.032.457.096.837.241 1.188a3.57 3.57 0 0 0 1.93 1.93c.5.206 1.068.252 1.847.266.272.004.445.008.576.022.123.014.17.034.198.05.03.017.07.048.14.144.075.103.16.246.294.474l.336.568c.48.81 1.67.81 2.149 0l.336-.568c.135-.228.22-.37.295-.474a.5.5 0 0 1 .139-.144.5.5 0 0 1 .198-.05c.132-.014.304-.018.577-.022.778-.014 1.347-.06 1.846-.266a3.57 3.57 0 0 0 1.93-1.93c.145-.351.21-.73.24-1.187.031-.448.031-1.003.031-1.711v-.896a.463.463 0 0 0-.464-.463"/><path fill="#9A9A9A" d="m41.999 16.79-2.656 2.656a4 4 0 0 0-.33.355q-.154.196-.262.424a4 4 0 0 0-.17.453l-.388 1.165a.761.761 0 0 0 .963.963l1.165-.389c.192-.064.325-.108.453-.17a2.3 2.3 0 0 0 .424-.261c.112-.087.212-.187.355-.33L44.208 19a1.562 1.562 0 1 0-2.21-2.21m-1.085 4.19a3 3 0 0 1-.288.272 1.4 1.4 0 0 1-.252.156c-.07.033-.146.06-.373.135l-.643.214-.117-.117.215-.643c.075-.226.101-.303.135-.373q.064-.135.155-.252c.048-.06.105-.118.273-.287l1.852-1.852a2.33 2.33 0 0 0 .895.894l-1.852 1.852m2.637-2.637-.082.081-.031-.01a1.4 1.4 0 0 1-.523-.33 1.4 1.4 0 0 1-.33-.523l-.01-.031.081-.082a.632.632 0 1 1 .894.894"/><path stroke="#9A9A9A" stroke-linecap="round" stroke-linejoin="round" d="M34.666 20.083h.625M34.666 22.167h1.25M34.666 24.25h4.167"/><path fill="#FD4E4E" d="M43.017 63.49a.546.546 0 1 0-.347-1.036l-3.858 1.294a.545.545 0 1 0 .347 1.036zM47.519 71.968a.55.55 0 0 0 .423-.36l1.323-3.848a.547.547 0 1 0-1.035-.356l-1.323 3.848a.547.547 0 0 0 .612.716M68.849 44.321a.54.54 0 0 0-.363.414.546.546 0 0 0 .71.622l3.857-1.294a.545.545 0 1 0-.347-1.037zM64.347 35.842a.55.55 0 0 0-.423.361L62.6 40.051a.547.547 0 1 0 1.036.355l1.323-3.847a.547.547 0 0 0-.612-.717"/><path fill="#9A9A9A" d="M56.225 69.633c0-.302.246-.547.547-.547.303 0 .547.244.546.547v.889c0 4.148-3.375 7.525-7.525 7.525H26.285c-4.149 0-7.525-3.375-7.525-7.525v-6.308a.548.548 0 0 1 1.095 0v6.308a6.44 6.44 0 0 0 6.431 6.431h23.508a6.44 6.44 0 0 0 6.431-6.431zM27.388 38.565h19.12a.548.548 0 0 0 0-1.094h-19.12a.547.547 0 0 0 0 1.094M27.386 44.004h14.12a.547.547 0 0 0 0-1.094h-14.12a.547.547 0 0 0 0 1.094m9.647 5.109H27.33a.547.547 0 0 0 0 1.094h9.703a.547.547 0 0 0 0-1.094m0 5.439H27.33a.547.547 0 0 0 0 1.094h9.703a.547.547 0 0 0 0-1.094"/><path fill="#9A9A9A" d="M18.76 9.478v50.55a.548.548 0 1 0 1.096 0V9.477a6.44 6.44 0 0 1 6.432-6.431h23.507a6.44 6.44 0 0 1 6.432 6.431v28.694a.548.548 0 0 0 1.093 0V9.478c0-4.148-3.375-7.525-7.525-7.525h-23.51c-4.148 0-7.524 3.375-7.524 7.525"/><path fill="#FD4E4E" d="M58.648 49.92h-3.686c.147-.203.267-.4.344-.543a.41.41 0 0 1 .304-.205 2 2 0 0 1 .235-.005h2.005c.177 0 .21.001.236.005.172.026.245.086.29.18q.018.036.043.095c.05.115.127.29.23.473"/><path fill="#FD4E4E" fill-rule="evenodd" d="M57 66c6.627 0 12-5.373 12-12s-5.373-12-12-12-12 5.373-12 12 5.373 12 12 12m-1.184-17.833c-.13 0-.247 0-.358.016-.434.067-.82.328-1.03.717a4 4 0 0 1-.482.693q-.156.177-.284.267a.4.4 0 0 1-.115.06h-1.88a.5.5 0 1 0 0 1h10.666a.5.5 0 1 0 0-1h-2.199c-.194 0-.345-.097-.495-.301a2.7 2.7 0 0 1-.28-.522l-.079-.173c-.226-.477-.644-.68-1.043-.74-.11-.017-.227-.017-.358-.017zm-2.483 3.825a.5.5 0 0 0-.997.07l.282 4.068c.052.746.095 1.356.194 1.836.105.505.285.932.658 1.267.37.331.819.472 1.341.537.503.063 1.137.063 1.92.063h.538c.782 0 1.416 0 1.919-.063.522-.065.971-.206 1.341-.538.373-.334.553-.761.657-1.266.1-.48.143-1.09.195-1.836l.282-4.068a.5.5 0 1 0-.997-.07l-.28 4.033c-.056.79-.094 1.332-.179 1.738-.08.39-.191.587-.346.725-.157.141-.377.237-.798.29-.433.054-1.004.055-1.828.055h-.471c-.824 0-1.395 0-1.828-.055-.421-.053-.641-.149-.798-.29-.155-.139-.265-.335-.346-.725-.085-.406-.123-.948-.178-1.738zm2.64 1.445a.5.5 0 1 0-.995.103l.305 2.923a.5.5 0 1 0 .995-.104zm3.048.103a.5.5 0 1 0-.995-.103l-.305 2.922a.5.5 0 1 0 .995.104z" clip-rule="evenodd"/></svg>
